public/img/assets/icons/weather-conditions/showers-night.svg

<svg width="120" height="120" viewBox="0 0 120 120" fill="none" xmlns="http://www.w3.org/2000/svg">
<path fill-rule="evenodd" clip-rule="evenodd" d="M60 23.9693C67.9618 28.2539 73.383 36.7361 73.383 46.5C73.383 56.2639 67.9618 64.7461 60 69.0307C63.5221 70.9261 67.5414 72 71.8085 72C85.7214 72 97 60.5833 97 46.5C97 32.4167 85.7214 21 71.8085 21C67.5414 21 63.5221 22.0739 60 23.9693Z" fill="#D580FF"/>
<path d="M40.6154 82.6916C39.1385 87.6241 36 88.9572 36 92.4343C36 95.5116 38.4808 98 41.5385 98C44.5962 98 47.0769 95.5116 47.0769 92.4343C47.0769 88.9461 43.9385 87.6463 42.4615 82.6916C42.2077 81.7918 40.9038 81.7474 40.6154 82.6916ZM59.0769 82.6916C57.6 87.6241 54.4615 88.9572 54.4615 92.4343C54.4615 95.5116 56.9423 98 60 98C63.0577 98 65.5385 95.5116 65.5385 92.4343C65.5385 88.9461 62.4 87.6463 60.9231 82.6916C60.6692 81.7918 59.3654 81.7474 59.0769 82.6916ZM77.5385 82.6916C76.0615 87.6241 72.9231 88.9572 72.9231 92.4343C72.9231 95.5116 75.4038 98 78.4615 98C81.5192 98 84 95.5116 84 92.4343C84 88.9461 80.8615 87.6463 79.3846 82.6916C79.1308 81.7918 77.8269 81.7474 77.5385 82.6916Z" fill="#D580FF"/>
<path d="M40.2308 83.6484C38.8769 88.2726 36 89.5224 36 92.7822C36 95.6671 38.274 98 41.0769 98C43.8798 98 46.1538 95.6671 46.1538 92.7822C46.1538 89.5119 43.2769 88.2934 41.9231 83.6484C41.6904 82.8048 40.4952 82.7632 40.2308 83.6484Z" fill="#D580FF"/>
<path d="M59.2308 83.6484C57.8769 88.2726 55 89.5224 55 92.7822C55 95.6671 57.274 98 60.0769 98C62.8798 98 65.1538 95.6671 65.1538 92.7822C65.1538 89.5119 62.2769 88.2934 60.9231 83.6484C60.6904 82.8048 59.4952 82.7632 59.2308 83.6484Z" fill="#D580FF"/>
<path d="M78.2308 83.6484C76.8769 88.2726 74 89.5224 74 92.7822C74 95.6671 76.274 98 79.0769 98C81.8798 98 84.1538 95.6671 84.1538 92.7822C84.1538 89.5119 81.2769 88.2934 79.9231 83.6484C79.6904 82.8048 78.4952 82.7632 78.2308 83.6484Z" fill="#D580FF"/>
<path d="M87.0625 58.2C86.9629 58.2 86.8799 58.2331 86.7969 58.2331C86.9795 57.3719 87.0625 56.4775 87.0625 55.55C87.0625 48.2294 81.1191 42.3 73.7813 42.3C69.6973 42.3 66.0947 44.1716 63.6543 47.07C60.5664 41.1075 54.4072 37 47.2188 37C36.9424 37 28.625 45.2978 28.625 55.55C28.625 56.7591 28.7578 57.9184 28.9736 59.0613C22.6152 61.1481 18 67.0609 18 74.1C18 82.8781 25.1387 90 33.9375 90H87.0625C95.8613 90 103 82.8781 103 74.1C103 65.3219 95.8613 58.2 87.0625 58.2Z" fill="#FF99FF"/>
<path fill-rule="evenodd" clip-rule="evenodd" d="M83.4718 90.4085C83.1273 89.4781 82.5596 88.6535 81.928 87.7362C80.9965 86.3834 79.9262 84.8289 79.2286 82.4356C78.9763 81.5207 77.6801 81.4756 77.3933 82.4356C76.697 84.8139 75.6292 86.3692 74.6988 87.7242C74.0658 88.6463 73.4964 89.4756 73.151 90.4085H83.4718ZM65.1186 90.4085C64.7741 89.4781 64.2064 88.6535 63.5748 87.7362C62.6433 86.3834 61.573 84.8289 60.8754 82.4356C60.6231 81.5207 59.3269 81.4756 59.0401 82.4356C58.3438 84.8139 57.276 86.3692 56.3457 87.7242C55.7126 88.6463 55.1432 89.4756 54.7978 90.4085H65.1186ZM46.7654 90.4085C46.4209 89.4781 45.8532 88.6535 45.2216 87.7362C44.2901 86.3834 43.2198 84.8289 42.5222 82.4356C42.2699 81.5207 40.9737 81.4756 40.6869 82.4356C39.9906 84.8139 38.9228 86.3692 37.9925 87.7242C37.3594 88.6463 36.79 89.4756 36.4446 90.4085H46.7654Z" fill="#9966FF"/>
<path fill-rule="evenodd" clip-rule="evenodd" d="M93.6276 59.8205C91.6786 58.9862 89.5304 58.5239 87.2738 58.5239C87.2213 58.5239 87.1734 58.533 87.1276 58.5417C87.0859 58.5496 87.046 58.5571 87.006 58.5571C87.1901 57.6936 87.2738 56.7968 87.2738 55.8669C87.2738 48.5268 81.2832 42.5817 73.8869 42.5817C73.6573 42.5817 73.4291 42.5875 73.2026 42.599C73.3966 43.8663 73.4972 45.1644 73.4972 46.4859C73.4972 56.2444 68.0126 64.7219 59.9578 69.0041C63.521 70.8985 67.5873 71.9718 71.9043 71.9718C81.0913 71.9718 89.143 67.1108 93.6276 59.8205Z" fill="#9966FF"/>
</svg>

<svg width="120" height="120" fill="none" xmlns="http://www.w3.org/2000/svg"><path fill-rule="evenodd" clip-rule="evenodd" d="M60 23.97c7.962 4.284 13.383 12.766 13.383 22.53 0 9.764-5.421 18.246-13.383 22.53A24.84 24.84 0 0 0 71.808 72C85.721 72 97 60.583 97 46.5S85.721 21 71.808 21A24.84 24.84 0 0 0 60 23.97Z" fill="#D580FF"/><path d="M40.615 82.692C39.138 87.624 36 88.957 36 92.434 36 95.512 38.48 98 41.538 98c3.058 0 5.539-2.488 5.539-5.566 0-3.488-3.139-4.788-4.615-9.742-.254-.9-1.558-.945-1.847 0Zm18.462 0c-1.477 4.932-4.615 6.265-4.615 9.742C54.462 95.512 56.941 98 60 98c3.058 0 5.538-2.488 5.538-5.566 0-3.488-3.138-4.788-4.615-9.742-.254-.9-1.558-.945-1.846 0Zm18.462 0c-1.478 4.932-4.616 6.265-4.616 9.742 0 3.078 2.48 5.566 5.538 5.566C81.52 98 84 95.512 84 92.434c0-3.488-3.138-4.788-4.615-9.742-.254-.9-1.558-.945-1.847 0Z" fill="#D580FF"/><path d="M40.23 83.648C38.878 88.273 36 89.522 36 92.782 36 95.667 38.274 98 41.077 98s5.077-2.333 5.077-5.218c0-3.27-2.877-4.489-4.23-9.134-.234-.843-1.429-.885-1.693 0ZM59.23 83.648C57.878 88.273 55 89.522 55 92.782 55 95.667 57.274 98 60.077 98s5.077-2.333 5.077-5.218c0-3.27-2.877-4.489-4.23-9.134-.234-.843-1.429-.885-1.693 0ZM78.23 83.648C76.878 88.273 74 89.522 74 92.782 74 95.667 76.274 98 79.077 98s5.077-2.333 5.077-5.218c0-3.27-2.877-4.489-4.23-9.134-.234-.843-1.429-.885-1.693 0Z" fill="#D580FF"/><path d="M87.063 58.2c-.1 0-.183.033-.266.033.183-.861.266-1.755.266-2.683 0-7.32-5.944-13.25-13.282-13.25-4.084 0-7.686 1.872-10.127 4.77C60.566 41.108 54.407 37 47.22 37c-10.277 0-18.594 8.298-18.594 18.55 0 1.21.133 2.368.349 3.511C22.615 61.148 18 67.061 18 74.1 18 82.878 25.139 90 33.938 90h53.124C95.862 90 103 82.878 103 74.1s-7.139-15.9-15.938-15.9Z" fill="#F9F"/><path fill-rule="evenodd" clip-rule="evenodd" d="M83.472 90.409c-.345-.93-.912-1.756-1.544-2.673-.931-1.353-2.002-2.907-2.7-5.3-.252-.915-1.548-.96-1.835 0-.696 2.378-1.764 3.933-2.694 5.288-.633.922-1.203 1.752-1.548 2.684h10.32Zm-18.353 0c-.345-.93-.913-1.756-1.544-2.673-.932-1.353-2.002-2.907-2.7-5.3-.252-.915-1.548-.96-1.835 0-.696 2.378-1.764 3.933-2.694 5.288-.633.922-1.203 1.752-1.548 2.684h10.32Zm-18.354 0c-.344-.93-.912-1.756-1.543-2.673-.932-1.353-2.002-2.907-2.7-5.3-.252-.915-1.548-.96-1.835 0-.696 2.378-1.764 3.933-2.694 5.288-.634.922-1.203 1.752-1.548 2.684h10.32ZM93.628 59.82a16.109 16.109 0 0 0-6.354-1.296c-.053 0-.1.009-.146.018a.658.658 0 0 1-.122.015c.184-.863.268-1.76.268-2.69 0-7.34-5.99-13.285-13.387-13.285-.23 0-.458.005-.684.017.194 1.267.294 2.565.294 3.887 0 9.758-5.484 18.236-13.54 22.518a25.373 25.373 0 0 0 11.947 2.968c9.187 0 17.239-4.861 21.724-12.151Z" fill="#96F"/></svg>
